!!!SOCIAL_FUNCTION:	bird dance songs
!!!PDT:	1956
!!!OTL: No_174_Steal_Partner_Dance_Song_(c).krn
!!!LANG: Non-Tone
!!!LING_GROUP: Muskogean
!!!REG: Florida
**kern
*staff1
=1-
*clefF4
*k[f#]
*M3/4
8.G\L
16G\Jk
8.G\L
16d\Jk
(8d\L
8B\J)
=2
16d\LL
16d\J
8B\J
8B\L
8G\J
4B\
=3||
*M7/8
4d\
8B\L
16c\L
16B\J
8d\
8B\
8G\J
=4||
*M3/4
8.B\L
16G\Jk
4G\
4G\
=5||
*M2/4
4B\
8G\L
16G\L
16G\JJ
=6
4G\
8G\
8r
=7||
*M3/4
12G\L
12G\
12G\J
4G\
4G\
=8||
*M2/4
8d\L
8B\J
8G\L
8G\J
=9||
*M3/4
16B\LK
8.B;\J
16B\LL
16G\
16G\
16G\JJ
8G\L
8G\J
=10
8B\L
8B\J
8G\L
16B\L
16G\JJ
4G\
=11||
*M2/4
4B\
4G\
=12
8G\L
8G\J
4G\
=13
4d\
4r
==
*-
